X: 21041
U: Q=!diminuendo(!
U: q=!diminuendo)!
M: C
L: 1/8
K: G
V: 1 staves=3
!mf!g3a |\
b2a2 c'2b2 | (af)g2 e'2d'2 | {d'}c'2b2 a2(bg) | d'4 !p!g3a |\
b2a2 c'2b2 | (af) gz e'2d'2 | {d'}c'2b2 Qa2(bqg) |
"_<>"d'4 !p!a2b2 |\
(af)d2 c'2b2 | (af)d2 d'3"_cres."c' | b3B Q^c3qc | "_<>"Hd4 !p!yg'3f' |\
e'2d'2 e'3d' | {d'}c'3b a3(b/c'/) |
(d'e'c'a) g2 ({b}a>g) | g.a/.b/ .c'/.d'/.e'/.f'/ !f!g'3f' |\
e'2d'2 e'3d' | {d'}c'2b2 a3(b/c'/) | (d'e'c'a) g2 ({b}a>g) | Hg4 |]
V: 2
!mf!B3d |\
g2f2 a2g2 | c2B2 c'2b2 | d4 e4 | f4 !p!B3d |\
g2f2 e2d2 | c2B2 c'2b2 | d4 Qe4q |
"_<>"f4 !p!F2G2 |\
c2B2 c3B | F2G2 F3(G/A/) |
c'2b2 c'3b | f2g2 f3(g/a/) | b2(ec) B2c2 | HB4 |]
V: 3
!mf!G3D |\
z4 G2G2 | D2G2 z4 | F2G2 Q[c2C2]q[^c2^C2] |
"_<>"[d4D4] !p!D4 |\
(GA).B.G G4 | D2G2 D4 |
(GA).B.G G4 | D2G2 D4 | G2C2 D2D2 | HG4 |]


